src/asset/120/percent.svg

<svg width="120" height="120" viewBox="0 0 120 120" fill="none" xmlns="http://www.w3.org/2000/svg">
    <path d="M88 59.5C88 62.3198 84.1996 64.4832 83.366 67.0113C82.5079 69.6367 84.2487 73.5989 82.655 75.7867C81.0368 77.9988 76.6725 77.5612 74.4413 79.1656C72.2347 80.7457 71.303 84.9996 68.655 85.8504C66.1051 86.6769 62.8441 83.8085 60 83.8085C57.1559 83.8085 53.9194 86.6769 51.345 85.8504C48.697 84.9996 47.7653 80.7457 45.5587 79.1656C43.3275 77.5612 38.9632 77.9988 37.345 75.7867C35.7513 73.5989 37.4921 69.6367 36.634 67.0113C35.8004 64.4832 32 62.2955 32 59.5C32 56.6802 35.8004 54.5168 36.634 51.9887C37.4921 49.3633 35.7513 45.4011 37.345 43.2133C38.9632 41.0012 43.3275 41.4388 45.5587 39.8344C47.7653 38.2544 48.697 34.0004 51.345 33.1496C53.8949 32.3231 57.1559 35.1915 60 35.1915C62.8441 35.1915 66.0806 32.3231 68.655 33.1496C71.303 34.0004 72.2347 38.2544 74.4413 39.8344C76.6725 41.4388 81.0368 41.0012 82.655 43.2133C84.2487 45.4011 82.5079 49.3633 83.366 51.9887C84.1996 54.5168 88 56.6802 88 59.5Z" fill="url(#paint0_linear)"/>
    <path fill-rule="evenodd" clip-rule="evenodd" d="M48.5757 94.7439C49.1162 94.9164 49.6813 94.9902 50.2218 94.9902C52.1633 94.9902 54.0809 94.0289 55.8324 93.1509L55.8971 93.1184C57.3712 92.3796 58.8944 91.6161 60 91.6161C61.1056 91.6161 62.6288 92.3796 64.1029 93.1184C66.3632 94.276 68.9183 95.5567 71.4243 94.7439C74.0248 93.9078 75.3514 91.3034 76.5294 88.9908L76.5345 88.9808L76.5863 88.8804C77.3061 87.4847 78.0282 86.0848 78.844 85.4835C79.7038 84.8678 81.3499 84.5968 82.9223 84.3506L82.9522 84.3456C85.4754 83.9282 88.3336 83.4553 89.9243 81.2719C91.5212 79.1046 91.079 76.2477 90.6859 73.7109C90.6781 73.6602 90.6703 73.6094 90.6625 73.5586C90.4237 72.0061 90.1809 70.4271 90.5139 69.4254C90.8333 68.4895 91.9635 67.332 93.0691 66.2237C94.9117 64.3765 97 62.2831 97 59.5C97 56.7169 94.9117 54.6235 93.0691 52.7763C91.9635 51.668 90.8088 50.5105 90.5139 49.5746C90.1946 48.5401 90.4402 46.89 90.6859 45.2891L90.6971 45.2129C91.0632 42.7188 91.4808 39.8735 89.9243 37.7281C88.3336 35.5447 85.4755 35.0718 82.9522 34.6544L82.9223 34.6494C81.3254 34.4032 79.7038 34.1322 78.844 33.5165C78.0086 32.9008 77.247 31.4477 76.5345 30.0192L76.4868 29.9265C75.3193 27.6581 73.9935 25.0822 71.4243 24.2561C68.9474 23.4527 66.4225 24.7186 64.1818 25.842L64.1029 25.8816C62.6288 26.6204 61.1056 27.3839 60 27.3839C58.8944 27.3839 57.3712 26.6204 55.8971 25.8816C53.6368 24.724 51.0817 23.4433 48.5757 24.2561C45.9752 25.0922 44.6486 27.6966 43.4706 30.0092L43.4655 30.0192C43.4482 30.0526 43.431 30.0861 43.4137 30.1195C42.6939 31.5152 41.9718 32.9152 41.156 33.5165C40.2961 34.1322 38.6501 34.4032 37.0777 34.6494L37.0478 34.6544C34.5245 35.0718 31.6664 35.5447 30.0757 37.7281C28.4788 39.8954 28.921 42.7524 29.3141 45.2891C29.3219 45.3398 29.3297 45.3906 29.3375 45.4414C29.5763 46.9939 29.8191 48.5729 29.4861 49.5746C29.1667 50.5105 28.0365 51.668 26.9309 52.7763C25.0883 54.6235 23 56.7169 23 59.5C23 62.2831 25.0883 64.3765 26.9309 66.2237C28.0365 67.332 29.1912 68.4895 29.4861 69.4254C29.8054 70.4599 29.5598 72.11 29.3141 73.7109L29.3029 73.7871C28.9368 76.2811 28.5192 79.1265 30.0757 81.2719C31.6664 83.4553 34.5246 83.9282 37.0478 84.3456L37.0777 84.3506C38.6746 84.5968 40.2961 84.8678 41.156 85.4835C41.9914 86.0992 42.753 87.5523 43.4655 88.9808L43.5132 89.0735C44.6807 91.3419 46.0065 93.9178 48.5757 94.7439ZM65.7382 89.5303C63.8887 88.6147 61.9912 87.6754 60.0001 87.6754C58.0089 87.6754 56.1115 88.6147 54.262 89.5303L54.1282 89.5965C54.079 89.6208 54.0296 89.6452 53.98 89.6696C52.4215 90.4396 50.7082 91.286 49.7796 90.9757C48.7232 90.6309 47.8141 88.8576 46.9542 87.1582L46.9181 87.0877C45.9958 85.2869 45.0419 83.4243 43.4655 82.2817C41.8686 81.0995 39.7557 80.7547 37.7165 80.4345C35.8493 80.139 33.9084 79.8188 33.2696 78.9321C32.6309 78.0701 32.9257 76.1491 33.2205 74.2773C33.5399 72.2085 33.8593 70.0904 33.2451 68.1693C32.6309 66.3468 31.1568 64.8444 29.7318 63.4159C28.356 62.0614 26.9556 60.6329 26.9556 59.4753C26.9556 58.3178 28.356 56.9139 29.7318 55.5347C31.1813 54.1062 32.6554 52.6285 33.2451 50.7813C33.8593 48.8603 33.5399 46.7422 33.2205 44.6734C33.2144 44.6311 33.2083 44.5889 33.2022 44.5466C32.9374 42.7154 32.6693 40.8611 33.2696 40.0185C33.9084 39.1319 35.8493 38.8117 37.7165 38.5161C39.7557 38.196 41.8686 37.8512 43.4655 36.669C45.0419 35.5263 45.9958 33.6637 46.9181 31.8629L46.9542 31.7924C47.8141 30.093 48.7232 28.3198 49.7796 27.975C50.7479 27.6595 52.5034 28.5396 54.0588 29.3194L54.1282 29.3542C54.1728 29.3762 54.2173 29.3983 54.262 29.4204C56.1115 30.3359 58.0089 31.2752 60.0001 31.2752C62.0398 31.2752 63.9596 30.3128 65.8068 29.3868L65.8719 29.3542C65.941 29.3201 66.0104 29.2858 66.08 29.2513C67.6204 28.4895 69.2803 27.6686 70.2205 27.975C71.2769 28.3198 72.186 30.093 73.0459 31.7924L73.082 31.8629C74.0043 33.6637 74.9582 35.5263 76.5346 36.669C78.1315 37.8512 80.2444 38.196 82.2836 38.5161C84.1508 38.8117 86.0917 39.1319 86.7305 40.0185C87.3692 40.8805 87.0744 42.8016 86.7796 44.6734C86.4602 46.7422 86.1408 48.8603 86.755 50.7813C87.3692 52.6039 88.8433 54.1062 90.2683 55.5347C91.6441 56.8893 93.0445 58.3178 93.0445 59.4753C93.0445 60.6329 91.6441 62.0367 90.2683 63.4159C88.8188 64.8444 87.3447 66.3222 86.755 68.1693C86.1408 70.0904 86.4602 72.2085 86.7796 74.2773L86.7979 74.404C87.0627 76.2352 87.3308 78.0896 86.7305 78.9321C86.0917 79.8188 84.1508 80.139 82.2836 80.4345C80.2444 80.7547 78.1315 81.0995 76.5346 82.2817C74.9582 83.4243 74.0043 85.2869 73.082 87.0877L73.0459 87.1582C72.186 88.8576 71.2769 90.6309 70.2205 90.9757C69.2522 91.2912 67.4967 90.4111 65.9412 89.6312L65.8719 89.5965C65.8273 89.5744 65.7828 89.5524 65.7382 89.5303Z" fill="url(#paint1_linear)"/>
    <path d="M49.7213 71C49.2802 71 48.8392 70.8284 48.4962 70.5098C47.8346 69.8481 47.8346 68.7452 48.4962 68.0835L69.0781 47.4963C69.7397 46.8346 70.8423 46.8346 71.5038 47.4963C72.1654 48.158 72.1654 49.2609 71.5038 49.9226L50.9219 70.5098C50.6034 70.8284 50.1623 71 49.7213 71Z" fill="white"/>
    <path fill-rule="evenodd" clip-rule="evenodd" d="M45 51.5C45 55.0787 47.9213 58 51.5 58C55.0787 58 58 55.0787 58 51.5C58 47.9213 55.0787 45 51.5 45C47.9213 45 45 47.9213 45 51.5ZM48.4082 51.4757C48.4082 49.7716 49.7958 48.3839 51.5 48.3839C53.2041 48.3839 54.5917 49.7716 54.5917 51.4757C54.5917 53.1798 53.2041 54.5674 51.5 54.5674C49.7958 54.5674 48.4082 53.1798 48.4082 51.4757Z" fill="white"/>
    <path fill-rule="evenodd" clip-rule="evenodd" d="M62 67.5C62 71.0787 64.9213 74 68.5 74C72.103 74 75 71.0787 75 67.5C75 63.9213 72.0787 61 68.5 61C64.9213 61 62 63.9213 62 67.5ZM65.4082 67.4757C65.4082 65.7716 66.7958 64.3839 68.5 64.3839C70.2041 64.3839 71.5917 65.7716 71.5917 67.4757C71.5917 69.1798 70.2041 70.5674 68.5 70.5674C66.7958 70.5674 65.4082 69.1798 65.4082 67.4757Z" fill="white"/>
    <defs>
        <linearGradient id="paint0_linear" x1="32" y1="33" x2="84.9198" y2="88.9152" gradientUnits="userSpaceOnUse">
            <stop stop-color="#FFBE41"/>
            <stop offset="1" stop-color="#FF9141"/>
        </linearGradient>
        <linearGradient id="paint1_linear" x1="23" y1="24" x2="93.9392" y2="97.9367" gradientUnits="userSpaceOnUse">
            <stop stop-color="#78A0FF"/>
            <stop offset="1" stop-color="#5078E6"/>
        </linearGradient>
    </defs>
</svg>

<svg width="120" height="120" fill="none" xmlns="http://www.w3.org/2000/svg"><path d="M88 59.5c0 2.82-3.8 4.983-4.634 7.511-.858 2.626.883 6.588-.711 8.776-1.618 2.212-5.983 1.774-8.214 3.379-2.206 1.58-3.138 5.834-5.786 6.684-2.55.827-5.81-2.041-8.655-2.041-2.844 0-6.08 2.868-8.655 2.041-2.648-.85-3.58-5.104-5.786-6.684-2.231-1.605-6.596-1.167-8.214-3.38-1.594-2.187.147-6.15-.711-8.775C35.8 64.483 32 62.296 32 59.5c0-2.82 3.8-4.983 4.634-7.511.858-2.626-.883-6.588.711-8.776 1.618-2.212 5.983-1.774 8.214-3.379 2.206-1.58 3.138-5.834 5.786-6.684 2.55-.827 5.81 2.041 8.655 2.041 2.844 0 6.08-2.868 8.655-2.041 2.648.85 3.58 5.104 5.786 6.684 2.231 1.605 6.596 1.167 8.214 3.38 1.594 2.187-.147 6.15.711 8.775C84.2 54.517 88 56.68 88 59.5z" fill="url(#paint0_linear)"/><path fill-rule="evenodd" clip-rule="evenodd" d="M48.576 94.744c.54.172 1.105.246 1.646.246 1.941 0 3.859-.961 5.61-1.84l.065-.032c1.474-.738 2.997-1.502 4.103-1.502 1.106 0 2.629.764 4.103 1.502 2.26 1.158 4.815 2.439 7.321 1.626 2.6-.836 3.927-3.44 5.105-5.753l.005-.01.052-.1c.72-1.396 1.442-2.796 2.258-3.397.86-.616 2.506-.887 4.078-1.133l.03-.005c2.523-.418 5.382-.89 6.972-3.074 1.597-2.167 1.155-5.024.762-7.561l-.024-.152c-.238-1.553-.481-3.132-.148-4.134.32-.935 1.45-2.093 2.555-3.201C94.912 64.376 97 62.284 97 59.5c0-2.783-2.088-4.877-3.93-6.724-1.106-1.108-2.261-2.266-2.556-3.201-.32-1.035-.074-2.685.172-4.286l.011-.076c.366-2.494.784-5.34-.773-7.485-1.59-2.183-4.449-2.656-6.972-3.074l-.03-.005c-1.597-.246-3.218-.517-4.078-1.133-.835-.615-1.597-2.068-2.31-3.497l-.047-.092c-1.168-2.269-2.493-4.845-5.063-5.67-2.477-.804-5.002.462-7.242 1.585l-.08.04c-1.473.738-2.996 1.502-4.102 1.502-1.106 0-2.629-.764-4.103-1.502-2.26-1.158-4.815-2.439-7.321-1.626-2.6.836-3.927 3.44-5.105 5.753l-.005.01-.052.1c-.72 1.396-1.442 2.796-2.258 3.398-.86.615-2.506.886-4.078 1.132l-.03.005c-2.523.418-5.382.89-6.972 3.074-1.597 2.167-1.155 5.024-.762 7.561l.023.152c.24 1.553.482 3.132.15 4.134-.32.935-1.45 2.093-2.556 3.201C25.088 54.623 23 56.716 23 59.5c0 2.783 2.088 4.876 3.93 6.724 1.107 1.108 2.261 2.266 2.556 3.201.32 1.035.074 2.685-.172 4.286l-.011.076c-.366 2.494-.784 5.34.773 7.485 1.59 2.183 4.449 2.656 6.972 3.074l.03.005c1.597.246 3.218.517 4.078 1.133.835.615 1.597 2.068 2.31 3.497l.047.093c1.168 2.268 2.494 4.844 5.063 5.67zm17.162-5.214c-1.85-.915-3.747-1.855-5.738-1.855-1.991 0-3.889.94-5.738 1.855l-.134.067-.148.073c-1.558.77-3.272 1.616-4.2 1.306-1.057-.345-1.966-2.118-2.826-3.818l-.036-.07c-.922-1.801-1.876-3.664-3.453-4.806-1.596-1.182-3.71-1.527-5.748-1.847-1.868-.296-3.809-.616-4.447-1.503-.64-.862-.344-2.783-.05-4.655.32-2.069.64-4.187.025-6.108-.614-1.822-2.088-3.325-3.513-4.753-1.376-1.355-2.776-2.783-2.776-3.94 0-1.158 1.4-2.562 2.776-3.941 1.45-1.429 2.923-2.906 3.513-4.754.614-1.92.295-4.039-.024-6.108l-.019-.126c-.265-1.832-.533-3.686.068-4.528.638-.887 2.58-1.207 4.447-1.503 2.039-.32 4.152-.665 5.748-1.847 1.577-1.143 2.53-3.005 3.453-4.806l.036-.07c.86-1.7 1.77-3.473 2.826-3.818.968-.316 2.723.565 4.279 1.344l.07.035.133.066c1.85.916 3.747 1.855 5.738 1.855 2.04 0 3.96-.962 5.807-1.888l.065-.033.208-.103c1.54-.762 3.2-1.582 4.14-1.276 1.057.345 1.966 2.118 2.826 3.817l.036.07c.922 1.802 1.876 3.664 3.453 4.807 1.597 1.182 3.71 1.527 5.749 1.847 1.867.296 3.808.616 4.447 1.503.638.861.343 2.783.049 4.654-.32 2.07-.64 4.187-.025 6.108.614 1.823 2.088 3.325 3.513 4.754 1.376 1.354 2.776 2.783 2.776 3.94 0 1.158-1.4 2.562-2.776 3.94-1.45 1.43-2.923 2.907-3.513 4.754-.614 1.921-.295 4.04.025 6.108l.018.127c.265 1.831.533 3.686-.067 4.528-.64.887-2.58 1.207-4.447 1.502-2.04.32-4.153.666-5.75 1.848-1.576 1.142-2.53 3.005-3.452 4.806l-.036.07c-.86 1.7-1.77 3.473-2.826 3.818-.968.315-2.723-.565-4.279-1.345l-.07-.034-.133-.067z" fill="url(#paint1_linear)"/><path d="M49.721 71c-.44 0-.882-.172-1.225-.49a1.731 1.731 0 010-2.427l20.582-20.587a1.73 1.73 0 012.426 0 1.731 1.731 0 010 2.427L50.922 70.51a1.71 1.71 0 01-1.2.49z" fill="#fff"/><path fill-rule="evenodd" clip-rule="evenodd" d="M45 51.5c0 3.579 2.921 6.5 6.5 6.5s6.5-2.921 6.5-6.5-2.921-6.5-6.5-6.5-6.5 2.921-6.5 6.5zm3.408-.024a3.096 3.096 0 013.092-3.092 3.096 3.096 0 013.092 3.092 3.096 3.096 0 01-3.092 3.091 3.096 3.096 0 01-3.092-3.091zM62 67.5c0 3.579 2.921 6.5 6.5 6.5 3.603 0 6.5-2.921 6.5-6.5S72.079 61 68.5 61 62 63.921 62 67.5zm3.408-.024a3.096 3.096 0 013.092-3.092 3.096 3.096 0 013.092 3.092 3.096 3.096 0 01-3.092 3.091 3.096 3.096 0 01-3.092-3.091z" fill="#fff"/><defs><linearGradient id="paint0_linear" x1="88" y1="33" x2="88" y2="86" gradientUnits="userSpaceOnUse"><stop stop-color="#4070FF"/><stop offset="1" stop-color="#365FD9"/></linearGradient><linearGradient id="paint1_linear" x1="97" y1="24" x2="97" y2="95" gradientUnits="userSpaceOnUse"><stop stop-color="#FFA526"/><stop offset="1" stop-color="#FF860D"/></linearGradient></defs></svg>
